cssgg/arrange-back.svg

<svg viewBox="0 0 24 24" xmlns="http://www.w3.org/2000/svg"><path fill-rule="evenodd" d="M3 3h8v4h6v6h4v8h-8v-4H7v-6H3V3Zm12 10h-2v2H9v-4h2V9h4v4Z"/></svg>

<svg
  width="24"
  height="24"
  viewBox="0 0 24 24"
  fill="none"
  xmlns="http://www.w3.org/2000/svg"
>
  <path
    fill-rule="evenodd"
    clip-rule="evenodd"
    d="M3 3H11V7H17V13H21V21H13V17H7V11H3V3ZM15 13H13V15H9V11H11V9H15V13Z"
    fill="currentColor"
  />
</svg>
